img/yellow-ring.svg

<svg width="1359" height="648" viewBox="0 0 1359 648" fill="none" xmlns="http://www.w3.org/2000/svg">
<path d="M1226.58 421.644C1206.86 438.146 1165 464.708 1141.23 477.562C1140.79 477.805 1140.35 478.048 1139.92 478.291C1134.24 481.44 1128.92 484.361 1122.69 487.702C1107.58 495.663 1087.5 506.611 1043.57 525.448C1030.84 531.07 1018.07 536.44 1005.15 541.614C918.798 576.149 829.115 601.375 738.106 619.01C682.178 629.817 625.687 637.693 569.052 642.314C567.201 642.481 565.241 642.654 563.3 642.822C525.978 646.183 479.367 648.057 450.04 647.625C412.76 647.197 387.702 645.45 366.88 643.696C250.522 632.669 122.485 613.974 36.1956 524.014C19.8238 505.11 7.43016 482.125 2.5862 457.158C-0.044258 443.892 -0.584821 430.244 0.77068 416.922C4.41473 381.273 20.7665 348.752 41.0325 320.695C52.7609 304.202 65.5365 289.602 77.8688 276.936C95.364 259.007 112.239 244.601 126.638 233.272C161.248 205.88 204.181 180.034 236.835 162.815C242.144 159.994 247.228 157.354 251.978 154.928C277.868 141.355 304.535 128.77 331.475 117.195C333.326 116.494 335.192 115.796 337.046 115.109C360.469 106.498 389.02 94.9614 434.892 79.683C454.911 73.0566 478.303 65.7745 505.887 58.2155C523.869 53.3099 533.021 51.4362 540.675 49.8348C542.917 49.3703 545.024 48.9383 547.154 48.4865C554.516 46.9249 561.926 44.8537 570.89 42.4434C582.547 39.3184 596.413 35.6965 615.215 32.3497C617.371 31.9668 619.486 31.5933 621.561 31.2288C676.855 21.7004 702.182 17.642 721.287 14.2364C727.083 13.2415 732.492 12.3511 737.935 11.5726C755.557 9.01813 780.945 6.74706 800.155 5.71702C815.404 4.81404 845.717 2.49696 868.911 1.34621C877.678 0.885733 889.399 0.589792 903.435 0.507442C917.742 0.421443 934.64 0.57772 952.378 0.984825C997.51 2.13602 1021.64 4.65286 1040.76 6.61482C1046.3 7.21229 1051.41 7.81083 1056.47 8.44143C1072.52 10.4335 1092.57 13.5007 1112.51 17.4804C1136.7 22.2592 1160.44 28.4035 1178.82 34.0616C1225.43 49.3817 1271.5 70.2471 1308.75 104.508C1327.9 122.055 1341.71 143.929 1347.46 161.427C1353.34 178.979 1352.58 189.526 1350.79 189.836C1348.72 190.245 1345.66 180.694 1337.66 165.685C1329.73 150.658 1316.04 132.116 1298.12 116.062C1262.08 83.6704 1215.65 63.5474 1168.79 49.1822C1111.24 31.8198 1050.8 22.995 990.694 18.7588C948.461 15.8311 906.016 15.335 863.644 16.7725C859.242 16.9225 854.88 17.0917 850.556 17.2798C814.867 19.3636 779.711 23.0041 754.735 26.0056C734.268 28.4544 719.227 30.2545 706.438 31.8732C697.594 33.0006 689.772 34.0674 681.959 35.3447C677.75 36.0334 671.994 37.006 665.031 38.2394C653.944 40.2027 640.116 42.7759 624.474 45.9186C599.98 50.8232 571.949 57.0279 545.448 63.4064C526.253 68.0034 503.949 73.6211 482.813 79.4885C452.65 87.8061 424.73 96.7696 410.824 101.896C386.542 110.774 358.605 121.345 334.449 131.455C311.318 141.087 291.46 150.308 280.397 156.099C267.182 163.028 255.775 168.636 239.186 177.407C227.587 183.584 213.558 191.228 194.974 202.701C173.561 215.984 158.82 226.064 146.631 234.767C129.252 247.339 116.818 256.943 99.417 273.511C80.2884 291.791 62.1848 312.587 49.6439 330.089C43.9743 337.915 37.8488 347.437 32.4245 357.725C25.2974 371.129 19.2973 386.406 15.8912 400.473C13.0339 412.138 11.7732 422.001 11.4031 430.782C11.2914 433.525 11.2735 436.157 11.3407 438.703C11.679 444.168 12.3811 449.604 13.4562 455.002C14.259 459.033 15.2614 463.002 16.4597 466.91C16.971 468.373 17.5387 469.897 18.1645 471.475C21.3122 479.393 25.9589 488.843 33.2117 499.544C44.8017 516.456 57.7116 529.477 72.752 541.645C84.2721 550.895 97.7556 559.872 113.521 568.176C124.474 573.961 137.314 579.751 150.248 584.791C169.555 592.363 189.146 598.289 202.924 602.315C207.987 603.801 212.365 605.223 216.753 606.601C216.772 606.607 216.791 606.614 216.811 606.62C217.109 606.714 217.408 606.807 217.707 606.9C251.497 615.342 285.954 621.089 320.581 624.948C323.648 625.246 326.641 625.521 329.631 625.782C344.279 627.075 358.726 627.95 368.044 628.184C378.302 628.484 403.806 629.731 430.588 629.803C448.23 629.891 466.543 629.533 481.256 628.904C489.88 628.54 498.31 628.489 506.702 628.372C514.57 628.259 522.705 628.077 531.646 627.458C536.117 627.147 540.827 626.729 545.939 626.247C550.429 625.823 555.19 625.352 560.197 624.875C564.92 624.425 575.073 623.706 588.349 622.524C596.589 621.791 605.795 620.901 615.519 619.83C641.288 616.573 666.761 612.699 692.255 608.205C697.564 607.077 702.132 605.982 705.687 604.974C708.246 604.25 710.411 603.539 712.634 602.806C715.66 601.808 718.791 600.769 723.159 599.571C726.572 598.636 730.643 597.727 733.417 597.295C733.544 597.276 733.668 597.257 733.789 597.239C734.905 597.076 735.801 596.989 736.622 596.91C737.664 596.809 738.595 596.717 739.706 596.49C740.508 596.326 741.327 596.083 742.335 595.786C743.942 595.311 746.033 594.693 749.259 594.015C761.238 591.496 774.877 588.557 788.191 585.492C802.875 582.121 817.463 578.516 828.794 575.477C841.601 572.056 859.786 567.345 878.066 562.158C890.77 558.564 903.373 554.798 914.213 551.33C924.751 547.964 935.674 544.087 946.186 540.205C958.684 535.593 970.885 530.866 981.141 527.168C983.222 526.419 985.874 525.713 989.212 524.805C991.614 524.147 994.372 523.383 997.472 522.443C1010.47 517.234 1023.35 511.84 1036.16 506.223C1036.59 505.988 1037.03 505.746 1037.48 505.502C1037.49 505.498 1037.49 505.494 1037.5 505.49C1047.51 500.004 1061.3 492.373 1081.44 483.281C1086.55 480.966 1089.83 479.709 1092.79 478.572C1095.67 477.461 1098.29 476.438 1101.98 474.581C1106.16 472.477 1110.91 469.729 1116 466.713C1123.05 462.539 1131.31 457.522 1139.45 453.143C1140.01 452.842 1140.61 452.519 1141.24 452.181C1147.12 449.002 1156.14 443.984 1164.83 439.298C1190.11 423.6 1214.5 406.599 1237.39 387.844C1275.24 356.61 1310.27 320.42 1331.01 276.47C1341.09 255.173 1346.42 233.247 1347.95 216.653C1349.55 200.045 1348.76 190.24 1350.79 189.836C1352.53 189.448 1357.16 198.718 1358.49 216.802C1359.91 234.793 1355.83 259.767 1345.31 282.959C1328.37 320.756 1301.75 352.68 1272.51 380.752C1271.02 382.213 1269.5 383.677 1267.97 385.131C1256.42 396.071 1245.56 405.803 1234.38 415.206C1231.83 417.354 1229.23 419.501 1226.58 421.644Z" fill="#FCB414"/>
</svg>

<svg xmlns="http://www.w3.org/2000/svg" width="1359" height="648" fill="none"><path fill="#FCB414" d="M1226.58 421.644c-19.72 16.502-61.58 43.064-85.35 55.918-.44.243-.88.486-1.31.729-5.68 3.149-11 6.07-17.23 9.411-15.11 7.961-35.19 18.909-79.12 37.746a1190 1190 0 0 1-38.42 16.166c-86.352 34.535-176.035 59.761-267.044 77.396-55.928 10.807-112.419 18.683-169.054 23.304-1.851.167-3.811.34-5.752.508-37.322 3.361-83.933 5.235-113.26 4.803-37.28-.428-62.338-2.175-83.16-3.929-116.358-11.027-244.395-29.722-330.684-119.682-16.372-18.904-28.766-41.889-33.61-66.856-2.63-13.266-3.17-26.914-1.815-40.236 3.644-35.649 19.996-68.17 40.262-96.227 11.728-16.493 24.504-31.093 36.836-43.759 17.495-17.929 34.37-32.335 48.769-43.664 34.61-27.392 77.543-53.238 110.197-70.457a1054 1054 0 0 1 15.143-7.887c25.89-13.573 52.557-26.158 79.497-37.733a833 833 0 0 1 5.571-2.086c23.423-8.611 51.974-20.148 97.846-35.426a1406 1406 0 0 1 70.995-21.468c17.982-4.905 27.134-6.779 34.788-8.38 2.242-.465 4.349-.897 6.479-1.349 7.362-1.561 14.772-3.632 23.736-6.043 11.657-3.125 25.523-6.746 44.325-10.093q3.234-.575 6.346-1.121c55.294-9.529 80.621-13.587 99.726-16.993 5.796-.995 11.205-1.885 16.648-2.663 17.622-2.555 43.01-4.826 62.22-5.856 15.249-.903 45.562-3.22 68.756-4.37 8.767-.461 20.488-.757 34.524-.84 14.307-.086 31.205.07 48.943.478 45.132 1.151 69.262 3.668 88.382 5.63 5.54.597 10.65 1.196 15.71 1.826 16.05 1.992 36.1 5.06 56.04 9.04 24.19 4.778 47.93 10.923 66.31 16.58 46.61 15.32 92.68 36.186 129.93 70.447 19.15 17.547 32.96 39.421 38.71 56.919 5.88 17.552 5.12 28.099 3.33 28.409-2.07.409-5.13-9.142-13.13-24.151-7.93-15.027-21.62-33.569-39.54-49.623-36.04-32.392-82.47-52.515-129.33-66.88-57.55-17.362-117.99-26.187-178.096-30.423-42.233-2.928-84.678-3.424-127.05-1.986q-6.603.225-13.088.507c-35.689 2.084-70.845 5.724-95.821 8.726-20.467 2.448-35.508 4.249-48.297 5.867-8.844 1.128-16.666 2.194-24.479 3.472-4.209.688-9.965 1.661-16.928 2.894a1811 1811 0 0 0-40.557 7.68c-24.494 4.904-52.525 11.109-79.026 17.487-19.195 4.597-41.499 10.215-62.635 16.083-30.163 8.317-58.083 17.28-71.989 22.407-24.282 8.878-52.219 19.449-76.375 29.559-23.131 9.632-42.989 18.853-54.052 24.644-13.215 6.929-24.622 12.537-41.211 21.308-11.599 6.177-25.628 13.821-44.212 25.294-21.413 13.283-36.154 23.363-48.343 32.066-17.379 12.572-29.813 22.176-47.214 38.744-19.129 18.28-37.232 39.076-49.773 56.578-5.67 7.826-11.795 17.348-17.22 27.636-7.127 13.404-13.127 28.681-16.533 42.748-2.857 11.665-4.118 21.528-4.488 30.309a118 118 0 0 0-.062 7.921 122 122 0 0 0 5.119 28.207 118 118 0 0 0 1.704 4.565c3.148 7.918 7.795 17.368 15.048 28.069 11.59 16.912 24.5 29.933 39.54 42.101 11.52 9.25 25.004 18.227 40.769 26.531 10.953 5.785 23.793 11.575 36.727 16.615 19.307 7.572 38.898 13.498 52.676 17.524 5.063 1.486 9.441 2.908 13.829 4.286l.058.019.896.28c33.79 8.442 68.247 14.189 102.874 18.048 3.067.298 6.06.573 9.05.834 14.648 1.293 29.095 2.168 38.413 2.402 10.258.3 35.762 1.547 62.544 1.619 17.642.088 35.955-.27 50.668-.899 8.624-.364 17.054-.415 25.446-.532 7.868-.113 16.003-.295 24.944-.914 4.471-.311 9.181-.729 14.293-1.211 4.49-.424 9.251-.895 14.258-1.372 4.723-.45 14.876-1.169 28.152-2.351 8.24-.733 17.446-1.623 27.17-2.694a1588 1588 0 0 0 76.736-11.625c5.309-1.128 9.877-2.223 13.432-3.231 2.559-.724 4.724-1.435 6.947-2.168 3.026-.998 6.157-2.037 10.525-3.235 3.413-.935 7.484-1.844 10.258-2.276l.372-.056a55 55 0 0 1 2.833-.329c1.042-.101 1.973-.193 3.084-.42.802-.164 1.621-.407 2.629-.704a81 81 0 0 1 6.924-1.771c11.979-2.519 25.618-5.458 38.932-8.523 14.684-3.371 29.272-6.976 40.603-10.015 12.807-3.421 30.992-8.132 49.272-13.319 12.704-3.594 25.307-7.36 36.147-10.828 10.538-3.366 21.461-7.243 31.973-11.125 12.498-4.612 24.699-9.339 34.955-13.037 2.081-.749 4.733-1.455 8.071-2.363 2.402-.658 5.16-1.422 8.26-2.362a1307 1307 0 0 0 38.688-16.22q.645-.354 1.32-.721c.01-.004.01-.008.02-.012 10.01-5.486 23.8-13.117 43.94-22.209 5.11-2.315 8.39-3.572 11.35-4.709 2.88-1.111 5.5-2.134 9.19-3.991 4.18-2.104 8.93-4.852 14.02-7.868 7.05-4.174 15.31-9.191 23.45-13.57l1.79-.962c5.88-3.179 14.9-8.197 23.59-12.883 25.28-15.698 49.67-32.699 72.56-51.454 37.85-31.234 72.88-67.424 93.62-111.374 10.08-21.297 15.41-43.223 16.94-59.817 1.6-16.608.81-26.413 2.84-26.817 1.74-.388 6.37 8.882 7.7 26.966 1.42 17.991-2.66 42.965-13.18 66.157-16.94 37.797-43.56 69.721-72.8 97.793a404 404 0 0 1-4.54 4.379c-11.55 10.94-22.41 20.672-33.59 30.075a505 505 0 0 1-7.8 6.438"/></svg>
